X: 21491
T: MRS. PARKER -- Reel
R: reel
B: K\"ohler's Violin Repository, v.2, 1885 p.149 #1
F: http://www.archive.org/details/klersviolinrepos02rugg
Z: 2012 John Chambers <jc:trillian.mit.edu>
M: C|
L: 1/8
K: D
ua |\
(fd)de (df)ed | (ed)ef (ag)eg | (fd)de (df)ed | (eB)Bc d2da |
(fd)de (df)ed | (ed)ef (ag)eg | (fd)de (df)ed | (eB)Bc d2d || ua |
(fd)af (dA)ba | (gf)ef (gb)ag | (fd)af (dc)ba | (BA)Bc A2Bc |
dcBA GFED | (ed)ef (ge)ag | (fd)gb (af)db | (ag)fe "_D.C. Fine."d2d |]

%%sep 2 1 500

